X:255
T: Es ist dunkel auf hohen Bergen (3-58), S. 168
N: P1030
O: Lothringen
S: PINCK, Louis: Verklingende Weisen, Bd3, Metz 1933]
N: Melodie der 1. Strophe
R: verlorene Liebe]
M: 4/4
L: 1/8
K: F
cd | c2AFA2d2 | c4A2
cf | d2c2B2A2 | G6
cB | AAG2FFE2 | F2A2G2
cd | c3GA2G2 | F6
cB | AA2GFFE2 | F2A2G2
cd | c3GA2G2 | F6

@@@ Tune index: 7805
